X:31
T:Death of Auld Robin Gray JJo.031
S:J.Jones MS,1801,N.Shrops.
A:N Shropshire
Z:Neil Brookes 2006
M:4/4
L:1/8
Q:1/2=60
K:C
e>f|g<edc c>deG|Acfa c’3b/a/|g>age dcfe|agfe {e}d2e>f|!
g<edc c>deG|Acfa c’3b/a/|g>age dc c’e/f/|g>agG c2ze|!
a>bac’ e>^fef|g>ag_b d3e|f>gfa c’bHaf|e>f e/d/c/B/ A3B|!
c>dec g>a {a}gf/e/|d>efd a3b|c’g a/g/f/e/ af Hc’f/e/|g>agG c2|]

